static/twitter.svg

<?xml version="1.0" encoding="UTF-8"?>
<svg width="61px" height="51px" viewBox="0 0 61 51" version="1.1" xmlns="http://www.w3.org/2000/svg" xmlns:xlink="http://www.w3.org/1999/xlink">
    <title>Group 3</title>
    <defs>
        <polygon id="path-1" points="0.857142857 0 60.8571429 0 60.8571429 51 0.857142857 51"></polygon>
    </defs>
    <g id="Page-1" stroke="none" stroke-width="1" fill="none" fill-rule="evenodd">
        <g id="Über-uns" transform="translate(-932.000000, -4503.000000)">
            <g id="Group-3" transform="translate(932.000000, 4503.000000)">
                <mask id="mask-2" fill="white">
                    <use xlink:href="#path-1"></use>
                </mask>
                <g id="Clip-2"></g>
                <path d="M0.857142857,45.6484435 L0.857142857,45.4270651 C1.12736345,45.4017173 1.39879727,45.3451551 1.66769433,45.3555599 C6.43460609,45.5397467 10.9404517,44.57664 15.1353782,42.2644534 C15.6624737,41.9738942 16.1859296,41.6468076 16.6332826,41.2484372 C17.1313708,40.8049056 17.0665179,40.2699447 16.5020326,39.9130827 C16.1198634,39.6714482 15.6848634,39.4925745 15.2512973,39.3575336 C12.2156723,38.4119158 9.83133403,36.5907464 8.12927521,33.9180451 C7.74280462,33.3112469 7.57967962,32.5272353 7.4506355,31.80045 C7.35666492,31.2714663 7.62787815,31.1120739 8.18067227,31.1069822 C9.02442227,31.0991233 9.86828256,31.0745503 10.7112605,31.0391297 C10.8870693,31.0317135 11.059459,30.9460401 11.2335032,30.896562 C11.2467384,30.8315875 11.2598634,30.7666129 11.2730987,30.701749 C10.624459,30.3405702 9.98541492,29.9604635 9.32552521,29.6215331 C6.33004727,28.0827319 4.2519958,25.7176358 3.0351208,22.585685 C2.47769433,21.1510423 2.23206933,19.6560739 2.28633403,18.0292748 C2.56173845,18.1508115 2.76787815,18.2659283 2.98835609,18.3349984 C3.94504727,18.6345233 4.89490021,18.9694688 5.8701208,19.1901831 C6.33269433,19.2948951 6.54423845,18.9380331 6.33181197,18.4933946 C6.1756355,18.166308 5.92339286,17.886043 5.71857668,17.5817584 C5.00111345,16.5163748 4.16464286,15.5107635 3.59320903,14.3714396 C2.16412815,11.5224103 1.98247374,8.50712583 2.77780462,5.43505782 C3.1288708,4.07922583 4.31122374,3.58997958 5.52600315,4.28322603 C5.88655462,4.48899725 6.2076208,4.78343051 6.5038708,5.08029894 C8.22589286,6.80616492 10.0845693,8.36433677 12.1144223,9.71197775 C16.6841282,12.745858 21.6696429,14.706053 27.0964443,15.5040114 C27.9360032,15.6274299 28.7853782,15.629865 29.5857826,15.2569531 C30.0898267,15.0220707 30.2956355,14.6622201 30.2646429,14.0685939 C30.2150105,13.1152278 30.2112605,12.150018 30.3010399,11.2005261 C30.8686134,5.19840432 36.830562,-1.22123711 45.2742384,0.199790816 C46.9487237,0.481716203 48.4589811,1.15880203 49.9353782,1.96639042 C50.7041282,2.38689868 51.5203046,2.73213829 52.3408929,3.0425108 C53.8888708,3.62816735 55.403209,3.40479655 56.8974737,2.77597121 C57.4505987,2.54319183 58.0309664,2.33686717 58.6189443,2.23614 C59.3094958,2.11759186 59.6885767,2.59765092 59.4347899,3.25115994 C59.244312,3.74151309 58.9757458,4.21946905 58.656334,4.63687802 C58.142584,5.30787593 57.5396061,5.90947173 57.0143855,6.57238934 C56.8475105,6.78292019 56.8081355,7.09506373 56.7103046,7.36071781 C56.9956355,7.43266578 57.2783193,7.5195568 57.5674002,7.56925625 C57.686187,7.58973376 57.8203046,7.5370457 57.9446061,7.50616341 C58.5319223,7.35961091 59.1155987,7.19700848 59.7058929,7.06429213 C60.1277679,6.96954218 60.5503046,6.94419435 60.8571429,7.34998095 L60.8571429,7.79273775 C60.4251208,8.33600033 60.0276208,8.91191623 59.5542384,9.41610553 C58.4713708,10.5692656 57.3315914,11.6689628 56.2622899,12.834188 C56.0314443,13.0858952 55.9197164,13.5157014 55.890709,13.8746664 C55.7432458,15.6919617 55.7460032,17.5270779 55.5042384,19.3300943 C54.7092384,25.2590505 52.5367752,30.6662178 49.1387237,35.5761693 C46.6436502,39.1813164 43.6904149,42.3584285 40.0734296,44.8408551 C34.9496061,48.357451 29.2295326,50.2870958 23.0653046,50.8324614 C16.3312973,51.4283014 9.83695903,50.4649733 3.72203256,47.4579905 C2.7143855,46.9625457 1.80953256,46.2569021 0.857142857,45.6484435" id="Fill-1" fill="#FFFFFF" mask="url(#mask-2)"></path>
            </g>
        </g>
    </g>
</svg>

<svg width="61" height="51" xmlns="http://www.w3.org/2000/svg" xmlns:xlink="http://www.w3.org/1999/xlink"><defs><path id="a" d="M0.857142857 0L60.8571429 0 60.8571429 51 0.857142857 51z"/></defs><g fill="none" fill-rule="evenodd"><mask id="b" fill="#fff"><use xlink:href="#a"/></mask><path d="M.857 45.648v-.22c.27-.026.542-.083.81-.072 4.768.184 9.273-.78 13.468-3.092.527-.29 1.05-.617 1.498-1.016.498-.443.434-.978-.131-1.335a5.3 5.3 0 0 0-1.25-.555c-3.036-.946-5.42-2.767-7.123-5.44-.386-.607-.55-1.39-.678-2.118-.094-.529.177-.688.73-.693a77.48 77.48 0 0 0 2.53-.068c.176-.007.348-.093.523-.142l.04-.195c-.65-.361-1.289-.742-1.948-1.08-2.996-1.54-5.074-3.904-6.29-7.036-.558-1.435-.804-2.93-.75-4.557.276.122.482.237.702.306.957.3 1.907.634 2.882.855.463.105.674-.252.462-.697-.156-.327-.409-.607-.613-.911-.718-1.066-1.554-2.071-2.126-3.21-1.429-2.85-1.61-5.865-.815-8.937.35-1.356 1.533-1.845 2.748-1.152.36.206.682.5.978.797 1.722 1.726 3.58 3.284 5.61 4.632 4.57 3.034 9.556 4.994 14.982 5.792.84.123 1.69.126 2.49-.247.504-.235.71-.595.679-1.188-.05-.954-.054-1.919.036-2.868C30.869 5.198 36.831-1.221 45.274.2c1.675.282 3.185.959 4.661 1.766.77.42 1.585.766 2.406 1.077 1.548.585 3.062.362 4.556-.267.554-.233 1.134-.44 1.722-.54.69-.118 1.07.362.816 1.015-.19.49-.46.968-.779 1.386-.513.67-1.116 1.272-1.642 1.935-.166.21-.206.523-.304.789.286.072.568.159.857.208.12.02.253-.032.378-.063.587-.146 1.17-.309 1.76-.442.423-.094.845-.12 1.152.286v.443c-.432.543-.83 1.119-1.303 1.623-1.083 1.153-2.222 2.253-3.292 3.418-.23.252-.342.682-.371 1.04-.148 1.818-.145 3.653-.387 5.456-.795 5.93-2.967 11.336-6.365 16.246-2.495 3.605-5.449 6.782-9.066 9.265-5.123 3.516-10.843 5.446-17.008 5.991-6.734.596-13.228-.367-19.343-3.374-1.008-.495-1.912-1.201-2.865-1.81" fill="#FFF" mask="url(#b)"/></g></svg>
